Kaze-dark-colors/24x24/actions/tag-symbolic.svg

<?xml version="1.0" encoding="UTF-8" standalone="no"?>
<svg xmlns:inkscape="http://www.inkscape.org/namespaces/inkscape" xmlns:sodipodi="http://sodipodi.sourceforge.net/DTD/sodipodi-0.dtd" xmlns="http://www.w3.org/2000/svg" xmlns:svg="http://www.w3.org/2000/svg" width="24" height="24" viewBox="0 0 24 24" fill="none" version="1.1" id="svg2" sodipodi:docname="tag.svg" inkscape:version="1.4 (e7c3feb100, 2024-10-09)">
   <defs id="defs1">
      <style id="current-color-scheme" type="text/css">
         .ColorScheme-Text { color:#e6f0f5; }
         .ColorScheme-Highlight { color:#2179cb; }
         .ColorScheme-Background { color:#e4e4e4; }
      </style>
   </defs>
   <defs id="defs2"/>
   <sodipodi:namedview id="namedview2" pagecolor="#ffffff" bordercolor="#ffffff" borderopacity="0.25" inkscape:showpageshadow="2" inkscape:pageopacity="0.0" inkscape:pagecheckerboard="0" inkscape:deskcolor="#d1d1d1" inkscape:zoom="33.291667" inkscape:cx="11.984981" inkscape:cy="12" inkscape:window-width="1920" inkscape:window-height="1008" inkscape:window-x="0" inkscape:window-y="0" inkscape:window-maximized="1" inkscape:current-layer="svg2"/>
   <circle cx="7.5" cy="7.5" r="1.5" fill="#ffffff" id="circle1"/>
   <path id="path2" d="m 4,11 5.4453,8.1679 c 0.30635,0.4596 0.9272,0.5838 1.3868,0.2774 L 11.5,19 M 4,10.5858 V 5 C 4,4.44772 4.44772,4 5,4 h 5.5858 c 0.2652,0 0.5196,0.10536 0.7071,0.29289 l 8,8.00001 c 0.3905,0.3905 0.3905,1.0237 0,1.4142 l -5.5858,5.5858 c -0.3905,0.3905 -1.0237,0.3905 -1.4142,0 l -8.00001,-8 C 4.10536,11.1054 4,10.851 4,10.5858 Z" style="stroke:#ffffff;stroke-opacity:1;stroke-width:1.1;stroke-dasharray:none;stroke-linecap:round"/>
   <circle cx="7.5" cy="7.5" r="1.5" style="fill:currentColor;opacity:0.5" class="ColorScheme-Highlight" id="circle1"/>
   <path id="path2" d="m 4,11 5.4453,8.1679 c 0.30635,0.4596 0.9272,0.5838 1.3868,0.2774 L 11.5,19 M 4,10.5858 V 5 C 4,4.44772 4.44772,4 5,4 h 5.5858 c 0.2652,0 0.5196,0.10536 0.7071,0.29289 l 8,8.00001 c 0.3905,0.3905 0.3905,1.0237 0,1.4142 l -5.5858,5.5858 c -0.3905,0.3905 -1.0237,0.3905 -1.4142,0 l -8.00001,-8 C 4.10536,11.1054 4,10.851 4,10.5858 Z" style="stroke:currentColor;opacity:0.5;stroke-width:1.1;stroke-dasharray:none;stroke-linecap:round" class="ColorScheme-Highlight"/>
</svg>

<svg width="24" height="24" viewBox="0 0 24 24" fill="none" xmlns="http://www.w3.org/2000/svg">
<path d="M4 10.5858V5C4 4.44772 4.44772 4 5 4H10.5858C10.851 4 11.1054 4.10536 11.2929 4.29289L19.2929 12.2929C19.6834 12.6834 19.6834 13.3166 19.2929 13.7071L13.7071 19.2929C13.3166 19.6834 12.6834 19.6834 12.2929 19.2929L4.29289 11.2929C4.10536 11.1054 4 10.851 4 10.5858Z" stroke="#DDDDDD" stroke-width="1.2"/>
<path d="M7.5 9C8.32843 9 9 8.32843 9 7.5C9 6.67157 8.32843 6 7.5 6C6.67157 6 6 6.67157 6 7.5C6 8.32843 6.67157 9 7.5 9Z" fill="#DDDDDD"/>
<path d="M4 11L9.4453 19.1679C9.75165 19.6275 10.3725 19.7517 10.8321 19.4453L11.5 19" stroke="#DDDDDD" stroke-width="1.2" stroke-linecap="round"/>
</svg>
